X:203
T: Mein Lieb ist eine Alpnerin (3-45), S. 118f
N: K1178
O: Luxemburg
S: KINTZELE, Guillaume: An der Ucht, Bd. 3 Luxemburg 1928]
N: in der Quelle mit einer 2. Stimme versehen
R: Liebe, Verehrung]
M: 6/8
L: 1/8
K: C
G | E2Gc2G | B2AD2D | B2AG2F | E3z2
G | E2Gc2G | B2AD2D | B2AG2B, | C3z2
E | D2DE2^F | G2AB2B | d2Ac2B | G3z2
G | E2Gc2G | B2AD2D | B2AG2F | E3z2
G | E2Gc2G | B2AD2D | B2AG2B, | C3z2

@@@ Tune index: 8257
